packages/sources/icons/src/vitamix/mail-send-line.svg

<svg width="16" height="16" viewBox="0 0 16 16" xmlns="http://www.w3.org/2000/svg"><path fill-rule="evenodd" clip-rule="evenodd" d="M14.0053 14C14.3696 13.9971 14.6641 13.7023 14.6667 13.338V2.66667C14.6667 2.29848 14.3682 2 14 2H2C1.63181 2 1.33333 2.29848 1.33333 2.66667V3.66667L8 9.66667L13.3333 4.86667V12.6667H1.33333V13.338C1.33333 13.7034 1.62931 13.9996 1.99467 14H14.0053ZM7.99997 7.87333L2.95597 3.33333H13.044L7.99997 7.87333ZM0 10H5.33333V11.3333H0V10ZM3.33333 6.66667H0V8H3.33333V6.66667Z"/></svg>

<svg width="16" height="16" xmlns="http://www.w3.org/2000/svg"><path fill-rule="evenodd" clip-rule="evenodd" d="M14.005 14a.667.667 0 0 0 .662-.662V2.667A.667.667 0 0 0 14 2H2a.667.667 0 0 0-.667.667v1l6.667 6 5.333-4.8v7.8h-12v.671c0 .365.296.662.662.662h12.01ZM8 7.873l-5.044-4.54h10.088L8 7.873ZM0 10h5.333v1.333H0V10Zm3.333-3.333H0V8h3.333V6.667Z"/></svg>
